X: 717
T: The Callan lasses
C: anon.
O: Ireland
B: Francis O'Neill: "The Dance Music of Ireland" (1907) no. 717
R: Reel
Z: Transcribed by Frank Nordberg - http://www.musicaviva.com
F: http://www.musicaviva.com/abc/tunes/ireland/oneill-1001/oneill-1001-071
7.abc
M: C|
L: 1/8
K: D
AD (3DDD (AD)FD|ADFA BcdB|AD (3DDD (AD)FA|GFEF GABd|AD (3DDD (AD)FD|ADFA
BcdB|AD (3DDD (FD)FA|
GFEF GABc||d2(fd) AdFA|d2(fd) cdec|d2(fd) (3(Bcd) AF|GFEF GABc|d2(fd) AdF
A|d2(fd) cdeg|fdec dBAF|GFEF GABd|]
W:
W:
W: From Musica Viva - http://www.musicaviva.com
W: the Internet center for free sheet music downloads.


